X:53
T:Connaught Man's Rambles, The
R:Jig
M:6/8
L:1/8
K:D
AG|:FAA dAA|BAB dAG|FAA dfe|dBB BAG|
  |FAA dAA|BAB def|gfe dfe|1dBB BAG:|2dBB B2e|
  |:fbb faa|fef d2e|fbb faa|fed ede|
  |fbb afe|dBc def|gfe dfe|1dBB B2e:|2dBB BAG|
